X: 34
T: Praeludia organi op. 5 – Grave
C: Franciszek Walczyński
%%abc-version 2.0
%%abcx-abcm2ps-target-version 5.9.1 (29 Sep 2008)
%%abc-creator hum2abc beta
%%abcx-conversion-date 2021/10/04 07:38:40
%%abc-edited-by Andrzej Borzym
%%abc-edited-by Krzysztof Stępień
%%abcx-initial-encoding-date 2021-07-26
%%humdrum-veritas 1408300185
%%humdrum-veritas-data 46199543
%%linebreak <none>
%%barnumbers 0
L: 1/4
M: C
N: Derived from pl-kozmzk--mzk-m-159--023_walczynski-franciszek--praeludia-organi-op-5-grave.krn
Q: "23. Grave."
%%staves {1 2}
V: 1 clef=treble
V: 2 clef=bass
K: E
[V:1] ED/C/AG & ED/C/AG | 
[V:2] E,D,/C,/A,G, & E,D,/C,/A,G, | 
[V:1] cB/A/GF & cB/A/GF | 
[V:2] CB,/A,/G,F, & CB,/A,/G,F, | 
[V:1] EF/G/CD & EF/G/CC- | 
[V:2] E,F,/G,/A,^A, & E,F,/G,/F,^^F, | 
[V:1] E2D2 & C3^B, | 
[V:2] G,E,/F,/G,F,- & G,2G,,2 | 
[V:1] C3z & G,3z | 
[V:2] F,E,/D,/E,G, & C,3z | 
[V:1] AG/F/cB- & AG/F/G2 | 
[V:2] A,G,/F,/G,C & A,G,/F,/^E,2 | 
[V:1] BA/G/Az & F3z | 
[V:2] =DC/B,/CB, & F,3z | 
[V:1] AG/F/dc- & AG/F/^A2 | 
[V:2] A,G,/F,/D2- & A,G,/F,/^^F,2 | 
[V:1] c^B/^A/B2 & G4- | 
[V:2] D4 & G,3F, | 
[V:1] cAG2 & GFFE/D/ | 
[V:2] C3^B, & E,F,G,G,, | 
[V:1] !accent!G3E & E3C- | 
[V:2] C=B,/A,/G,G, & C,3E, | 
[V:1] DE/F<ED/ & C2^B,2 | 
[V:2] A,2G,F,- & F,2G,G,, | 
[V:1] !fermata!C4 & G,4 |]  
[V:2] F,E,/D,/E,2 & !fermata!C,4 |]  


